X:75
T: HEI WAS BIN I A LUSTIGER BUA
N: K1263
O: Europa, Mitteleuropa, Deutschland
R: Kinder - Lied, Zaehl - Geschichte
M: 6/8
L: 1/8
K: C
 | C2CG,G,G, | A,A,A,G,2
G, | A,A,A,B,B,B, | C3G,3 |
C2CG,G,G, | A,2A,G,3 |
A,2A,B,B,B, | C2CG,2
G, | G,A,B,C3

@@@ Tune index: 7412
